src/ui/assets/img/transactions/t-sponsor-disabled-48.svg

<?xml version="1.0" encoding="UTF-8"?>
<svg width="48px" height="48px" viewBox="0 0 48 48" version="1.1" xmlns="http://www.w3.org/2000/svg" xmlns:xlink="http://www.w3.org/1999/xlink">
    <!-- Generator: Sketch 52.1 (67048) - http://www.bohemiancoding.com/sketch -->
    <title>Icon/t-closeorder-48</title>
    <desc>Created with Sketch.</desc>
    <g id="Icon/t-closeorder-48" stroke="none" stroke-width="1" fill="none" fill-rule="evenodd">
        <rect id="fon-fon-fon" fill="#D8D8D8" fill-rule="nonzero" opacity="0" x="0" y="0" width="48" height="48"></rect>
        <path d="M24,0 L24,0 C37.254834,-2.4348735e-15 48,10.745166 48,24 L48,24 C48,37.254834 37.254834,48 24,48 L24,48 C10.745166,48 1.623249e-15,37.254834 0,24 L0,24 C-1.623249e-15,10.745166 10.745166,2.4348735e-15 24,0 Z" id="krug" fill-opacity="0.1" fill="#EF4829"></path>
        <g id="Icon/80/Sponsored-Disable-80-error500" transform="translate(9.000000, 9.000000)" fill-rule="nonzero">
            <rect id="ico-zone" fill="#D8D8D8" opacity="0" x="0" y="0" width="30" height="30"></rect>
            <path d="M28.9897711,20.4228518 C29.6421536,18.741021 30,16.9123003 30,15 C30,6.71572875 23.2842712,0 15,0 C6.71572875,0 0,6.71572875 0,15 C0,23.2842712 6.71572875,30 15,30 C16.9123003,30 18.741021,29.6421536 20.4228518,28.9897711 C20.0560679,28.7491432 19.7163969,28.4705887 19.4094137,28.1596827 C18.0241513,28.6236435 16.5414294,28.875 15,28.875 C7.3370491,28.875 1.125,22.6629509 1.125,15 C1.125,7.3370491 7.3370491,1.125 15,1.125 C22.6629509,1.125 28.875,7.3370491 28.875,15 C28.875,16.5414294 28.6236435,18.0241513 28.1596827,19.4094137 C28.4705887,19.7163969 28.7491432,20.0560679 28.9897711,20.4228518 Z M9.9375,14.4375 C7.86643219,14.4375 6.1875,12.7585678 6.1875,10.6875 C6.1875,8.61643219 7.86643219,6.9375 9.9375,6.9375 C12.0085678,6.9375 13.6875,8.61643219 13.6875,10.6875 C13.6875,12.7585678 12.0085678,14.4375 9.9375,14.4375 Z M9.9375,13.3125 C11.3872475,13.3125 12.5625,12.1372475 12.5625,10.6875 C12.5625,9.23775253 11.3872475,8.0625 9.9375,8.0625 C8.48775253,8.0625 7.3125,9.23775253 7.3125,10.6875 C7.3125,12.1372475 8.48775253,13.3125 9.9375,13.3125 Z M21.1078395,8.91024756 L21.1078395,8.91024756 C21.3275095,9.12991748 21.3275095,9.48607278 21.1078395,9.70574269 L9.70574269,21.1078395 C9.48607278,21.3275095 9.12991748,21.3275095 8.91024756,21.1078395 L8.91024756,21.1078395 C8.69057765,20.8881696 8.69057765,20.5320143 8.91024756,20.3123444 L20.3123444,8.91024756 C20.5320143,8.69057765 20.8881696,8.69057765 21.1078395,8.91024756 Z" id="Oval-2" fill="#EF4829"></path>
            <path d="M17.0591031,21.5583373 C16.5902255,20.9323066 16.3125,20.1548364 16.3125,19.3125 C16.3125,17.2414322 17.9914322,15.5625 20.0625,15.5625 C21.2038168,15.5625 22.2260478,16.072367 22.9138426,16.8767508 C22.4099726,16.8886309 21.9210084,16.9607448 21.4538729,17.0861699 C21.050497,16.8335425 20.5735535,16.6875 20.0625,16.6875 C18.6127525,16.6875 17.4375,17.8627525 17.4375,19.3125 C17.4375,19.6172682 17.4894381,19.9099056 17.5849458,20.1820439 C17.3577314,20.61323 17.1799386,21.0745064 17.0591031,21.5583373 Z" id="Combined-Shape" fill="#EF4829"></path>
            <path d="M23.784233,22.9887378 L25.3752232,21.3977476 C25.5948931,21.1780777 25.9510484,21.1780777 26.1707183,21.3977476 C26.3903883,21.6174175 26.3903883,21.9735728 26.1707183,22.1932427 L24.5797281,23.784233 L26.1707183,25.3752232 C26.3903883,25.5948931 26.3903883,25.9510484 26.1707183,26.1707183 C25.9510484,26.3903883 25.5948931,26.3903883 25.3752232,26.1707183 L23.784233,24.5797281 L22.1932427,26.1707183 C21.9735728,26.3903883 21.6174175,26.3903883 21.3977476,26.1707183 C21.1780777,25.9510484 21.1780777,25.5948931 21.3977476,25.3752232 L22.9887378,23.784233 L21.3977476,22.1932427 C21.1780777,21.9735728 21.1780777,21.6174175 21.3977476,21.3977476 C21.6174175,21.1780777 21.9735728,21.1780777 22.1932427,21.3977476 L23.784233,22.9887378 Z M23.8125,30 C20.3952381,30 17.625,27.2297619 17.625,23.8125 C17.625,20.3952381 20.3952381,17.625 23.8125,17.625 C27.2297619,17.625 30,20.3952381 30,23.8125 C30,27.2297619 27.2297619,30 23.8125,30 Z M23.8125,28.875 C26.6084415,28.875 28.875,26.6084415 28.875,23.8125 C28.875,21.0165585 26.6084415,18.75 23.8125,18.75 C21.0165585,18.75 18.75,21.0165585 18.75,23.8125 C18.75,26.6084415 21.0165585,28.875 23.8125,28.875 Z" id="Combined-Shape" fill="#EF4829"></path>
        </g>
    </g>
</svg>

<?xml version="1.0" encoding="utf-8"?>
<!-- Generator: Adobe Illustrator 16.0.0, SVG Export Plug-In . SVG Version: 6.00 Build 0)  -->
<!DOCTYPE svg PUBLIC "-//W3C//DTD SVG 1.1//EN" "http://www.w3.org/Graphics/SVG/1.1/DTD/svg11.dtd">
<svg version="1.1" id="Layer_1" xmlns="http://www.w3.org/2000/svg" xmlns:xlink="http://www.w3.org/1999/xlink" x="0px" y="0px"
	 width="48px" height="48px" viewBox="0 0 48 48" enable-background="new 0 0 48 48" xml:space="preserve">
<title>Icon/t-closeorder-48</title>
<desc>Created with Sketch.</desc>
<g id="Icon_x2F_t-closeorder-48">
	<rect id="fon-fon-fon" fill="#D8D8D8" fill-opacity="0" width="48" height="48"/>
	<path id="krug" opacity="0.1" fill="#03A615" enable-background="new    " d="M24,0L24,0c13.255,0,24,10.745,24,24l0,0
		c0,13.255-10.745,24-24,24l0,0C10.745,48,0,37.255,0,24l0,0C0,10.745,10.745,0,24,0z"/>
	<g id="Icon_x2F_80_x2F_Sponsored-Disable-80-error500" transform="translate(9.000000, 9.000000)">
		<rect id="ico-zone" fill="#D8D8D8" fill-opacity="0" width="30" height="30"/>
		<path id="Oval-2" fill="#03A615" d="M28.99,20.423C29.643,18.741,30,16.912,30,15c0-8.284-6.716-15-15-15S0,6.716,0,15
			s6.716,15,15,15c1.912,0,3.741-0.357,5.423-1.01c-0.366-0.241-0.706-0.52-1.014-0.83c-1.386,0.463-2.868,0.715-4.409,0.715
			C7.337,28.875,1.125,22.663,1.125,15S7.337,1.125,15,1.125S28.875,7.337,28.875,15c0,1.541-0.252,3.024-0.715,4.409
			C28.471,19.717,28.749,20.057,28.99,20.423z M9.938,14.438c-2.071,0-3.75-1.679-3.75-3.75s1.679-3.75,3.75-3.75
			s3.75,1.679,3.75,3.75S12.009,14.438,9.938,14.438z M9.938,13.313c1.45,0,2.625-1.175,2.625-2.625s-1.175-2.625-2.625-2.625
			s-2.625,1.175-2.625,2.625S8.488,13.313,9.938,13.313z M21.107,8.91L21.107,8.91c0.221,0.22,0.221,0.576,0,0.795L9.706,21.107
			c-0.22,0.221-0.576,0.221-0.795,0l0,0c-0.22-0.219-0.22-0.575,0-0.795L20.313,8.91C20.532,8.69,20.889,8.69,21.107,8.91z"/>
		<path id="Combined-Shape" fill="#03A615" d="M17.059,21.559c-0.469-0.627-0.746-1.404-0.746-2.246c0-2.071,1.679-3.75,3.75-3.75
			c1.141,0,2.164,0.51,2.852,1.314c-0.504,0.012-0.993,0.084-1.46,0.209c-0.403-0.252-0.88-0.398-1.392-0.398
			c-1.449,0-2.625,1.176-2.625,2.625c0,0.305,0.052,0.598,0.147,0.869C17.357,20.613,17.18,21.074,17.059,21.559z"/>
		<path id="Combined-Shape_1_" fill="#03A615" d="M23.784,22.988l1.591-1.59c0.22-0.221,0.576-0.221,0.796,0
			c0.22,0.219,0.22,0.575,0,0.795l-1.591,1.591l1.591,1.591c0.22,0.22,0.22,0.576,0,0.796s-0.576,0.22-0.796,0l-1.591-1.591
			l-1.591,1.591c-0.22,0.22-0.576,0.22-0.795,0c-0.221-0.22-0.221-0.576,0-0.796l1.59-1.591l-1.59-1.591
			c-0.221-0.22-0.221-0.576,0-0.795c0.219-0.221,0.575-0.221,0.795,0L23.784,22.988z M23.813,30c-3.418,0-6.188-2.771-6.188-6.188
			s2.77-6.188,6.188-6.188S30,20.396,30,23.813S27.23,30,23.813,30z M23.813,28.875c2.796,0,5.063-2.267,5.063-5.063
			s-2.267-5.063-5.063-5.063s-5.063,2.267-5.063,5.063S21.017,28.875,23.813,28.875z"/>
	</g>
</g>
</svg>
